X:429
L:1/8
M:4/4
K:D
 A,A, | D2 D2 FFAF | D2 D2 A,4 | D3 D F2 A2 | Bcdc BAFE | D2 D2 FFAF | D2 DD A,2 A,2 | D3 D F2 A2 | 
 Bcdc d2!fine! :| fg | a2 a2 g2 g2 | fgfe dcBA | a2 a2 g2 g2 | fg f2 e2 ef/g/ | a3 a g2 g2 | 
 fgfe dcBA | d2 d2 ef g2 | fedc BA GF/E/!D.C.! ||

